X: 42273
T: Weaver And His Wife, The
R: jig
M: 6/8
K: Gmajor
|:GFE|D2 D DGA B3 G3|B3 G2 B d>cB A3|
DD/D/D DAB c3 A3|D2 d c>BA G3:|
|:GFE|DGB d3 DGd B3|DGB dcB c2 B cBA|
Fdc AcA FAF E3|D2 d c>BA G3:|

